; generated by Slic3r 1.2.9 on 2020-02-11 at 22:12:26

; external perimeters extrusion width = 0.40mm
; perimeters extrusion width = 0.68mm
; infill extrusion width = 1.28mm
; solid infill extrusion width = 0.68mm
; top infill extrusion width = 0.68mm

M190 S45 ; set bed temperature
M104 S255 ; set temperature
G28 ; home all axes
G1 Z5 F5000 ; lift nozzle

M109 S255 ; wait for temperature to be reached
G21 ; set units to millimeters
G90 ; use absolute coordinates
M82 ; use absolute distances for extrusion
G92 E0
G1 E-1.00000 F1800.00000
G92 E0
G1 Z0.200 F7800.000
G1 X85.989 Y85.989 F7800.000
G1 E1.00000 F1800.00000
G1 X86.316 Y85.662 E1.01373 F1800.000
G1 X87.762 Y84.394 E1.07083
G1 X88.496 Y83.831 E1.09829
G1 X90.095 Y82.763 E1.15539
G1 X90.896 Y82.301 E1.18284
G1 X92.611 Y81.455 E1.23963
G1 X93.475 Y81.096 E1.26740
G1 X95.296 Y80.478 E1.32449
G1 X96.189 Y80.239 E1.35195
G1 X98.075 Y79.864 E1.40904
G1 X98.992 Y79.743 E1.43651
G1 X100.900 Y79.618 E1.49329
G1 X101.836 Y79.617 E1.52106
G1 X103.755 Y79.743 E1.57816 F1800.000
G1 X104.672 Y79.864 E1.60562
G1 X106.547 Y80.237 E1.66240
G1 X107.451 Y80.478 E1.69017
G1 X109.272 Y81.096 E1.74727
G1 X110.126 Y81.450 E1.77473
G1 X111.851 Y82.301 E1.83182
G1 X112.652 Y82.763 E1.85928
G1 X114.251 Y83.832 E1.91639
G1 X114.984 Y84.395 E1.94384
G1 X116.768 Y85.979 E2.01466
G1 X134.021 Y103.232 E2.73913
G1 X134.338 Y103.570 E2.75287
G1 X135.606 Y105.016 E2.80997
G1 X136.169 Y105.749 E2.83743
G1 X137.237 Y107.348 E2.89452
G1 X137.699 Y108.149 E2.92198
G1 X138.550 Y109.875 E2.97910
G1 X138.904 Y110.728 E3.00654
G1 X139.518 Y112.539 E3.06332
G1 X139.761 Y113.443 E3.09109
G1 X140.136 Y115.328 E3.14818
G1 X140.257 Y116.245 E3.17565
G1 X140.383 Y118.164 E3.23274
G1 X140.383 Y119.089 E3.26020
G1 X140.257 Y121.008 E3.31729
G1 X140.136 Y121.925 E3.34476
G1 X139.761 Y123.811 E3.40185
G1 X139.522 Y124.704 E3.42931
G1 X138.904 Y126.525 E3.48640
G1 X138.550 Y127.380 E3.51387
G1 X137.699 Y129.104 E3.57096
G1 X137.237 Y129.905 E3.59842
G1 X136.168 Y131.504 E3.65552
G1 X135.605 Y132.238 E3.68298
G1 X134.338 Y133.684 E3.74007
G1 X133.684 Y134.338 E3.76753
G1 X132.237 Y135.606 E3.82466
G1 X131.504 Y136.169 E3.85209
G1 X129.905 Y137.237 E3.90918
G1 X129.104 Y137.699 E3.93664
G1 X127.380 Y138.550 E3.99374
G1 X126.525 Y138.904 E4.02120
G1 X124.704 Y139.522 E4.07831
G1 X123.811 Y139.761 E4.10575
G1 X121.925 Y140.136 E4.16285
G1 X121.008 Y140.257 E4.19031
G1 X119.089 Y140.383 E4.24740
G1 X118.164 Y140.383 E4.27486
G1 X116.245 Y140.257 E4.33196
G1 X115.328 Y140.136 E4.35942
G1 X113.443 Y139.761 E4.41651
G1 X112.549 Y139.522 E4.44397
G1 X110.728 Y138.904 E4.50107
G1 X109.874 Y138.550 E4.52853
G1 X108.149 Y137.699 E4.58562
G1 X107.348 Y137.237 E4.61308
G1 X105.749 Y136.168 E4.67020
G1 X105.016 Y135.605 E4.69764
G1 X103.232 Y134.021 E4.76847
G1 X85.979 Y116.768 E5.49293
G1 X84.395 Y114.984 E5.56376
G1 X83.831 Y114.251 E5.59122
G1 X82.763 Y112.652 E5.64833
G1 X82.301 Y111.851 E5.67578
G1 X81.450 Y110.126 E5.73287
G1 X81.096 Y109.272 E5.76033
G1 X80.478 Y107.451 E5.81743
G1 X80.239 Y106.557 E5.84489
G1 X79.864 Y104.672 E5.90198
G1 X79.743 Y103.755 E5.92944
G1 X79.617 Y101.836 E5.98654
G1 X79.617 Y100.911 E6.01398
G1 X79.743 Y98.992 E6.07109
G1 X79.864 Y98.075 E6.09855
G1 X80.239 Y96.188 E6.15567
G1 X80.478 Y95.296 E6.18311
G1 X81.093 Y93.485 E6.23989
G1 X81.450 Y92.620 E6.26766
G1 X82.301 Y90.896 E6.32476
G1 X82.763 Y90.095 E6.35222
G1 X83.832 Y88.495 E6.40933
G1 X84.395 Y87.762 E6.43677
G1 X85.662 Y86.316 E6.49387
G1 X85.947 Y86.032 E6.50582
G1 X86.241 Y86.241 F7800.000
G1 X86.552 Y85.931 E6.51886 F1800.000
G1 X87.998 Y84.663 E6.57596
G1 X88.694 Y84.128 E6.60202
G1 X90.293 Y83.060 E6.65913
G1 X91.054 Y82.621 E6.68519
G1 X92.769 Y81.775 E6.74197
G1 X93.590 Y81.434 E6.76836
G1 X95.411 Y80.816 E6.82546
G1 X96.259 Y80.589 E6.85153
G1 X98.145 Y80.214 E6.90862
G1 X99.015 Y80.099 E6.93470
G1 X100.924 Y79.974 E6.99148
G1 X101.812 Y79.974 E7.01786
G1 X103.731 Y80.099 E7.07496 F1800.000
G1 X104.602 Y80.214 E7.10103
G1 X106.478 Y80.587 E7.15782
G1 X107.336 Y80.816 E7.18420
G1 X109.157 Y81.434 E7.24129
G1 X109.968 Y81.771 E7.26737
G1 X111.693 Y82.621 E7.32446
G1 X112.453 Y83.060 E7.35054
G1 X114.053 Y84.129 E7.40764
G1 X114.749 Y84.663 E7.43371
G1 X116.515 Y86.231 E7.50384
G1 X133.769 Y103.485 E8.22831
G1 X134.069 Y103.805 E8.24135
G1 X135.337 Y105.251 E8.29845
G1 X135.872 Y105.948 E8.32452
G1 X136.940 Y107.547 E8.38161
G1 X137.379 Y108.307 E8.40769
G1 X138.230 Y110.032 E8.46481
G1 X138.566 Y110.843 E8.49086
G1 X139.180 Y112.654 E8.54764
G1 X139.411 Y113.512 E8.57402
G1 X139.786 Y115.398 E8.63112
G1 X139.901 Y116.269 E8.65719
G1 X140.026 Y118.188 E8.71428
G1 X140.026 Y119.066 E8.74036
G1 X139.901 Y120.985 E8.79745
G1 X139.786 Y121.855 E8.82353
G1 X139.411 Y123.741 E8.88062
G1 X139.184 Y124.590 E8.90670
G1 X138.566 Y126.410 E8.96379
G1 X138.229 Y127.222 E8.98987
G1 X137.379 Y128.946 E9.04696
G1 X136.940 Y129.707 E9.07303
G1 X135.872 Y131.306 E9.13013
G1 X135.337 Y132.002 E9.15620
G1 X134.069 Y133.448 E9.21329
G1 X133.448 Y134.069 E9.23937
G1 X132.002 Y135.338 E9.29650
G1 X131.306 Y135.872 E9.32254
G1 X129.707 Y136.940 E9.37963
G1 X128.946 Y137.379 E9.40571
G1 X127.222 Y138.230 E9.46280
G1 X126.410 Y138.566 E9.48888
G1 X124.589 Y139.184 E9.54599
G1 X123.741 Y139.411 E9.57204
G1 X121.855 Y139.786 E9.62914
G1 X120.985 Y139.901 E9.65521
G1 X119.066 Y140.026 E9.71231
G1 X118.188 Y140.026 E9.73838
G1 X116.269 Y139.901 E9.79547
G1 X115.398 Y139.786 E9.82155
G1 X113.512 Y139.411 E9.87864
G1 X112.664 Y139.184 E9.90472
G1 X110.843 Y138.566 E9.96181
G1 X110.032 Y138.229 E9.98789
G1 X108.307 Y137.379 E10.04498
G1 X107.547 Y136.940 E10.07106
G1 X105.947 Y135.871 E10.12817
G1 X105.251 Y135.337 E10.15422
G1 X103.485 Y133.769 E10.22436
G1 X86.231 Y116.515 E10.94882
G1 X84.663 Y114.749 E11.01896
G1 X84.128 Y114.052 E11.04503
G1 X83.060 Y112.453 E11.10214
G1 X82.621 Y111.693 E11.12820
G1 X81.771 Y109.968 E11.18529
G1 X81.434 Y109.157 E11.21137
G1 X80.816 Y107.336 E11.26847
G1 X80.589 Y106.488 E11.29454
G1 X80.214 Y104.602 E11.35163
G1 X80.099 Y103.731 E11.37771
G1 X79.974 Y101.812 E11.43480
G1 X79.973 Y100.935 E11.46086
G1 X80.099 Y99.015 E11.51797
G1 X80.214 Y98.145 E11.54404
G1 X80.589 Y96.258 E11.60116
G1 X80.816 Y95.410 E11.62721
G1 X81.431 Y93.600 E11.68399
G1 X81.771 Y92.778 E11.71038
G1 X82.621 Y91.054 E11.76747
G1 X83.060 Y90.293 E11.79355
G1 X84.129 Y88.694 E11.85066
G1 X84.663 Y87.998 E11.87672
G1 X85.931 Y86.552 E11.93381
G1 X86.199 Y86.284 E11.94506
G1 X86.493 Y86.493 F7800.000
G1 X86.787 Y86.199 E11.95741 F1800.000
G1 X88.233 Y84.931 E12.01451
G1 X88.893 Y84.425 E12.03919
G1 X90.492 Y83.357 E12.09629
G1 X91.212 Y82.941 E12.12097
G1 X92.927 Y82.095 E12.17776
G1 X93.704 Y81.773 E12.20275
G1 X95.525 Y81.154 E12.25985
G1 X96.328 Y80.939 E12.28454
G1 X98.214 Y80.564 E12.34163
G1 X99.039 Y80.456 E12.36632
G1 X100.947 Y80.331 E12.42310
G1 X101.789 Y80.330 E12.44810
G1 X103.708 Y80.456 E12.50519 F1800.000
G1 X104.532 Y80.564 E12.52988
G1 X106.408 Y80.937 E12.58666
G1 X107.221 Y81.154 E12.61166
G1 X109.042 Y81.773 E12.66875
G1 X109.810 Y82.091 E12.69344
G1 X111.535 Y82.941 E12.75053
G1 X112.255 Y83.357 E12.77522
G1 X113.854 Y84.426 E12.83233
G1 X114.514 Y84.931 E12.85701
G1 X116.263 Y86.484 E12.92644
G1 X133.516 Y103.737 E13.65091
G1 X133.801 Y104.041 E13.66326
G1 X135.069 Y105.487 E13.72036
G1 X135.575 Y106.146 E13.74505
G1 X136.643 Y107.745 E13.80214
G1 X137.059 Y108.465 E13.82683
G1 X137.910 Y110.190 E13.88394
G1 X138.227 Y110.958 E13.90861
G1 X138.842 Y112.769 E13.96539
G1 X139.061 Y113.582 E13.99039
G1 X139.436 Y115.468 E14.04748
G1 X139.544 Y116.292 E14.07217
G1 X139.670 Y118.211 E14.12926
G1 X139.670 Y119.042 E14.15395
G1 X139.544 Y120.961 E14.21104
G1 X139.436 Y121.786 E14.23573
G1 X139.061 Y123.672 E14.29283
G1 X138.846 Y124.475 E14.31751
G1 X138.227 Y126.296 E14.37461
G1 X137.909 Y127.064 E14.39930
G1 X137.059 Y128.788 E14.45639
G1 X136.643 Y129.508 E14.48108
G1 X135.575 Y131.107 E14.53817
G1 X135.069 Y131.767 E14.56286
G1 X133.801 Y133.213 E14.61995
G1 X133.213 Y133.801 E14.64464
G1 X131.766 Y135.069 E14.70177
G1 X131.107 Y135.575 E14.72642
G1 X129.508 Y136.643 E14.78352
G1 X128.788 Y137.059 E14.80820
G1 X127.064 Y137.909 E14.86530
G1 X126.296 Y138.227 E14.88999
G1 X124.474 Y138.846 E14.94709
G1 X123.672 Y139.061 E14.97177
G1 X121.786 Y139.436 E15.02886
G1 X120.961 Y139.544 E15.05355
G1 X119.042 Y139.670 E15.11064
G1 X118.211 Y139.670 E15.13533
G1 X116.292 Y139.544 E15.19242
G1 X115.468 Y139.436 E15.21711
G1 X113.582 Y139.061 E15.27421
G1 X112.779 Y138.846 E15.29889
G1 X110.958 Y138.227 E15.35599
G1 X110.190 Y137.909 E15.38068
G1 X108.465 Y137.059 E15.43777
G1 X107.745 Y136.643 E15.46246
G1 X106.146 Y135.574 E15.51957
G1 X105.486 Y135.069 E15.54424
G1 X103.737 Y133.516 E15.61368
G1 X86.484 Y116.263 E16.33815
G1 X84.931 Y114.514 E16.40758
G1 X84.425 Y113.854 E16.43227
G1 X83.357 Y112.255 E16.48938
G1 X82.941 Y111.535 E16.51405
G1 X82.091 Y109.810 E16.57115
G1 X81.773 Y109.042 E16.59584
G1 X81.154 Y107.221 E16.65293
G1 X80.939 Y106.418 E16.67762
G1 X80.564 Y104.532 E16.73471
G1 X80.456 Y103.708 E16.75940
G1 X80.330 Y101.789 E16.81649
G1 X80.330 Y100.958 E16.84117
G1 X80.456 Y99.039 E16.89827
G1 X80.564 Y98.214 E16.92296
G1 X80.939 Y96.328 E16.98007
G1 X81.154 Y95.525 E17.00474
G1 X81.769 Y93.714 E17.06153
G1 X82.091 Y92.936 E17.08653
G1 X82.941 Y91.212 E17.14362
G1 X83.357 Y90.491 E17.16831
G1 X84.426 Y88.892 E17.22542
G1 X84.931 Y88.233 E17.25009
G1 X86.199 Y86.787 E17.30718
G1 X86.451 Y86.536 E17.31774
G1 E16.31774 F1800.00000
G92 E0
G1 X114.592 Y100.120 F7800.000
G1 E1.00000 F1800.00000
G1 X112.107 Y99.803 E1.07437 F1800.000
G1 X111.017 Y99.769 E1.10675
G1 X109.969 Y99.836 E1.13794
G1 X109.385 Y99.983 E1.15582
G1 X108.897 Y100.261 E1.17248
G1 X108.502 Y100.660 E1.18915
G1 X108.227 Y101.150 E1.20582
G1 X108.094 Y101.695 E1.22249
G1 X108.112 Y102.256 E1.23916
G1 X108.298 Y102.852 E1.25768
G1 X109.748 Y105.945 E1.35913
G1 X110.083 Y106.464 E1.37746
G1 X110.497 Y106.835 E1.39396
G1 X110.994 Y107.083 E1.41046
G1 X111.539 Y107.190 E1.42696
G1 X112.090 Y107.149 E1.44337
G1 X112.702 Y106.931 E1.46265
G1 X114.383 Y106.216 E1.51688
G1 X116.239 Y105.729 E1.57385
G1 X118.146 Y105.519 E1.63082
G1 X120.064 Y105.589 E1.68780
G1 X121.950 Y105.938 E1.74477
G1 X123.766 Y106.559 E1.80174
G1 X125.472 Y107.438 E1.85871
G1 X127.031 Y108.556 E1.91569
G1 X128.410 Y109.890 E1.97266
G1 X129.580 Y111.411 E2.02963
G1 X130.516 Y113.086 E2.08660
G1 X131.197 Y114.880 E2.14358
G1 X131.609 Y116.754 E2.20055
G1 X131.743 Y118.668 E2.25752
G1 X131.597 Y120.582 E2.31450
G1 X131.173 Y122.453 E2.37147
G1 X130.480 Y124.243 E2.42844
G1 X129.534 Y125.912 E2.48542
G1 X128.347 Y127.432 E2.54268
G1 X126.967 Y128.750 E2.59936
G1 X125.400 Y129.859 E2.65633
G1 X123.689 Y130.727 E2.71330
G1 X121.869 Y131.336 E2.77028
G1 X119.971 Y131.674 E2.82754
G1 X118.063 Y131.731 E2.88422
G1 X116.157 Y131.509 E2.94119
G1 X114.304 Y131.010 E2.99816
G1 X112.543 Y130.247 E3.05513
G1 X110.913 Y129.235 E3.11212
G1 X109.441 Y127.989 E3.16937
G1 X108.179 Y126.557 E3.22605
G1 X107.134 Y124.948 E3.28302
G1 X106.511 Y123.588 E3.32741
G1 X105.268 Y123.067 E3.36744
G1 X103.745 Y122.174 E3.41986
G1 X102.354 Y121.086 E3.47229
G1 X101.119 Y119.824 E3.52471
G1 X100.064 Y118.408 E3.57714
G1 X99.205 Y116.865 E3.62957
G1 X98.560 Y115.222 E3.68199
G1 X98.281 Y114.088 E3.71667
G1 X96.970 Y113.728 E3.75704
G1 X95.190 Y112.941 E3.81479
G1 X93.539 Y111.894 E3.87285
G1 X92.062 Y110.612 E3.93091
G1 X90.787 Y109.117 E3.98925
G1 X89.758 Y107.467 E4.04701
G1 X88.981 Y105.672 E4.10507
G1 X88.480 Y103.782 E4.16312
G1 X88.265 Y101.839 E4.22118
G1 X88.343 Y99.875 E4.27952
G1 X88.707 Y97.964 E4.33729
G1 X89.355 Y96.119 E4.39534
G1 X90.269 Y94.391 E4.45339
G1 X91.431 Y92.818 E4.51145
G1 X92.813 Y91.435 E4.56950
G1 X94.385 Y90.273 E4.62755
G1 X96.113 Y89.358 E4.68561
G1 X97.958 Y88.709 E4.74367
G1 X99.888 Y88.341 E4.80201
G1 X101.832 Y88.265 E4.85978
G1 X103.776 Y88.479 E4.91783
G1 X105.675 Y88.982 E4.97618
G1 X107.470 Y89.760 E5.03424
G1 X109.128 Y90.795 E5.09229
G1 X110.615 Y92.065 E5.15035
G1 X111.896 Y93.542 E5.20840
G1 X112.943 Y95.193 E5.26646
G1 X113.733 Y96.982 E5.32451
G1 X114.576 Y100.062 E5.41933
G1 X114.106 Y99.698 F7800.000
G1 X112.135 Y99.447 E5.47832 F1800.000
G1 X111.011 Y99.411 E5.51171
G1 X109.913 Y99.482 E5.54438
G1 X109.250 Y99.649 E5.56468
G1 X108.678 Y99.975 E5.58424
G1 X108.214 Y100.443 E5.60380
G1 X107.892 Y101.018 E5.62336
G1 X107.736 Y101.658 E5.64292
G1 X107.757 Y102.316 E5.66248
G1 X107.965 Y102.981 E5.68317
G1 X109.435 Y106.119 E5.78604
G1 X109.808 Y106.698 E5.80652
G1 X110.294 Y107.133 E5.82588
G1 X110.878 Y107.424 E5.84524
G1 X111.518 Y107.549 E5.86460
G1 X112.165 Y107.501 E5.88386
G1 X112.832 Y107.264 E5.90489
G1 X114.499 Y106.554 E5.95867
G1 X116.304 Y106.081 E6.01409
G1 X118.159 Y105.877 E6.06951
G1 X120.024 Y105.945 E6.12492
G1 X121.860 Y106.285 E6.18034
G1 X123.626 Y106.888 E6.23576
G1 X125.285 Y107.743 E6.29118
G1 X126.802 Y108.831 E6.34659
G1 X128.143 Y110.129 E6.40201
G1 X129.281 Y111.608 E6.45743
G1 X130.191 Y113.238 E6.51285
G1 X130.854 Y114.983 E6.56826
G1 X131.255 Y116.805 E6.62368
G1 X131.385 Y118.667 E6.67910
G1 X131.243 Y120.528 E6.73452
G1 X130.830 Y122.349 E6.78993
G1 X130.157 Y124.089 E6.84535
G1 X129.236 Y125.713 E6.90077
G1 X128.082 Y127.192 E6.95648
G1 X126.739 Y128.474 E7.01160
G1 X125.215 Y129.552 E7.06702
G1 X123.551 Y130.397 E7.12244
G1 X121.781 Y130.989 E7.17786
G1 X119.934 Y131.317 E7.23356
G1 X118.078 Y131.373 E7.28868
G1 X116.224 Y131.157 E7.34410
G1 X114.422 Y130.672 E7.39952
G1 X112.709 Y129.930 E7.45494
G1 X111.123 Y128.946 E7.51036
G1 X109.692 Y127.733 E7.56606
G1 X108.464 Y126.340 E7.62119
G1 X107.447 Y124.775 E7.67660
G1 X106.777 Y123.313 E7.72435
G1 X105.428 Y122.747 E7.76781
G1 X103.946 Y121.878 E7.81882
G1 X102.592 Y120.820 E7.86983
G1 X101.391 Y119.591 E7.92084
G1 X100.364 Y118.214 E7.97186
G1 X99.529 Y116.712 E8.02287
G1 X98.901 Y115.113 E8.07388
G1 X98.577 Y113.799 E8.11408
G1 X97.090 Y113.391 E8.15988
G1 X95.359 Y112.626 E8.21605
G1 X93.753 Y111.606 E8.27252
G1 X92.317 Y110.360 E8.32900
G1 X91.076 Y108.906 E8.38575
G1 X90.075 Y107.300 E8.44193
G1 X89.319 Y105.555 E8.49840
G1 X88.832 Y103.717 E8.55487
G1 X88.623 Y101.826 E8.61134
G1 X88.699 Y99.916 E8.66810
G1 X89.053 Y98.057 E8.72428
G1 X89.683 Y96.263 E8.78075
G1 X90.573 Y94.582 E8.83722
G1 X91.702 Y93.052 E8.89369
G1 X93.047 Y91.706 E8.95016
G1 X94.576 Y90.576 E9.00663
G1 X96.257 Y89.686 E9.06310
G1 X98.051 Y89.055 E9.11957
G1 X99.929 Y88.697 E9.17632
G1 X101.820 Y88.623 E9.23251
G1 X103.710 Y88.831 E9.28898
G1 X105.558 Y89.321 E9.34574
G1 X107.303 Y90.077 E9.40221
G1 X108.917 Y91.084 E9.45868
G1 X110.362 Y92.319 E9.51515
G1 X111.608 Y93.756 E9.57162
G1 X112.627 Y95.362 E9.62809
G1 X113.396 Y97.102 E9.68455
G1 X114.090 Y99.640 E9.76270
G1 X113.620 Y99.276 F7800.000
G1 X112.164 Y99.090 E9.80630 F1800.000
G1 X111.005 Y99.054 E9.84071
G1 X109.858 Y99.127 E9.87486
G1 X109.116 Y99.315 E9.89757
G1 X108.459 Y99.689 E9.92002
G1 X107.926 Y100.226 E9.94248
G1 X107.557 Y100.886 E9.96493
G1 X107.377 Y101.620 E9.98738
G1 X107.401 Y102.376 E10.00983
G1 X107.631 Y103.111 E10.03269
G1 X109.122 Y106.292 E10.13699
G1 X109.534 Y106.932 E10.15962
G1 X110.092 Y107.431 E10.18184
G1 X110.762 Y107.765 E10.20405
G1 X111.496 Y107.909 E10.22628
G1 X112.239 Y107.854 E10.24839
G1 X112.962 Y107.597 E10.27117
G1 X114.614 Y106.893 E10.32450
G1 X116.369 Y106.433 E10.37836
G1 X118.172 Y106.234 E10.43222
G1 X119.985 Y106.301 E10.48608
G1 X121.769 Y106.631 E10.53995
G1 X123.486 Y107.218 E10.59381
G1 X125.098 Y108.049 E10.64767
G1 X126.572 Y109.106 E10.70153
G1 X127.876 Y110.367 E10.75539
G1 X128.982 Y111.805 E10.80926
G1 X129.867 Y113.389 E10.86312
G1 X130.511 Y115.085 E10.91698
G1 X130.900 Y116.857 E10.97084
G1 X131.027 Y118.666 E11.02471
G1 X130.889 Y120.475 E11.07857
G1 X130.488 Y122.244 E11.13243
G1 X129.833 Y123.936 E11.18629
G1 X128.939 Y125.514 E11.24016
G1 X127.816 Y126.952 E11.29430
G1 X126.511 Y128.198 E11.34788
G1 X125.031 Y129.246 E11.40174
G1 X123.413 Y130.066 E11.45560
