; generated by Slic3r 1.2.9 on 2020-02-13 at 11:58:58

; external perimeters extrusion width = 0.40mm
; perimeters extrusion width = 0.68mm
; infill extrusion width = 1.28mm
; solid infill extrusion width = 0.68mm
; top infill extrusion width = 0.68mm

M190 S45 ; set bed temperature
M104 S255 ; set temperature
G28 ; home all axes
G1 Z5 F5000 ; lift nozzle

M109 S255 ; wait for temperature to be reached
G21 ; set units to millimeters
G90 ; use absolute coordinates
M82 ; use absolute distances for extrusion
G92 E0
G1 E-1.00000 F1800.00000
G92 E0
G1 Z0.200 F7800.000
G1 X101.173 Y99.389 F7800.000
G1 E1.00000 F1800.00000
G1 X102.941 Y97.811 E1.07037 F1800.000
G1 X105.131 Y96.905 E1.14074
G1 X106.700 Y96.729 E1.18763
G1 X113.300 Y96.729 E1.38359
G1 X115.637 Y97.126 E1.45396
G1 X117.711 Y98.273 E1.52433 F1800.000
G1 X119.289 Y100.041 E1.59469
G1 X120.195 Y102.231 E1.66506
G1 X120.371 Y103.800 E1.71195
G1 X120.371 Y116.200 E2.08012
G1 X119.974 Y118.536 E2.15049
G1 X118.827 Y120.611 E2.22086
G1 X117.059 Y122.189 E2.29123
G1 X114.869 Y123.095 E2.36160
G1 X113.300 Y123.271 E2.40849
G1 X106.700 Y123.271 E2.60445
G1 X104.363 Y122.874 E2.67482
G1 X102.289 Y121.727 E2.74519
G1 X100.711 Y119.959 E2.81556
G1 X99.805 Y117.769 E2.88592
G1 X99.629 Y116.200 E2.93281
G1 X99.629 Y103.800 E3.30098
G1 X100.026 Y101.464 E3.37135
G1 X101.144 Y99.442 E3.43994
G1 X101.496 Y99.574 F7800.000
G1 X101.527 Y99.520 E3.44179 F1800.000
G1 X103.283 Y98.020 E3.51034
G1 X105.443 Y97.205 E3.57890
G1 X106.700 Y97.086 E3.61639
G1 X113.300 Y97.086 E3.81235
G1 X115.575 Y97.483 E3.88091
G1 X117.580 Y98.627 E3.94947 F1800.000
G1 X119.080 Y100.383 E4.01802
G1 X119.895 Y102.543 E4.08658
G1 X120.014 Y103.800 E4.12407
G1 X120.014 Y116.200 E4.49224
G1 X119.617 Y118.475 E4.56080
G1 X118.473 Y120.480 E4.62935
G1 X116.717 Y121.980 E4.69791
G1 X114.557 Y122.795 E4.76647
G1 X113.300 Y122.914 E4.80396
G1 X106.700 Y122.914 E4.99992
G1 X104.425 Y122.517 E5.06848
G1 X102.420 Y121.373 E5.13703
G1 X100.920 Y119.617 E5.20559
G1 X100.105 Y117.457 E5.27415
G1 X99.986 Y116.200 E5.31164
G1 X99.986 Y103.800 E5.67981
G1 X100.383 Y101.525 E5.74837
G1 X101.466 Y99.626 E5.81329
G1 X101.817 Y99.763 F7800.000
G1 X101.881 Y99.654 E5.81704 F1800.000
G1 X103.623 Y98.237 E5.88373
G1 X106.700 Y97.443 E5.97807
G1 X113.300 Y97.443 E6.17404
G1 X115.511 Y97.840 E6.24073
G1 X117.446 Y98.981 E6.30742 F1800.000
G1 X118.863 Y100.724 E6.37412
G1 X119.657 Y103.800 E6.46846
G1 X119.657 Y116.200 E6.83663
G1 X119.260 Y118.411 E6.90332
G1 X118.119 Y120.346 E6.97002
G1 X116.377 Y121.763 E7.03671
G1 X113.300 Y122.557 E7.13105
G1 X106.700 Y122.557 E7.32701
G1 X104.489 Y122.160 E7.39371
G1 X102.554 Y121.019 E7.46040
G1 X101.137 Y119.276 E7.52710
G1 X100.343 Y116.200 E7.62143
G1 X100.343 Y103.800 E7.98961
G1 X100.740 Y101.589 E8.05630
G1 X101.786 Y99.815 E8.11747
G1 E7.11747 F1800.00000
G92 E0
G1 X112.069 Y114.636 F7800.000
G1 E1.00000 F1800.00000
G1 X111.736 Y114.969 E1.01398 F1800.000
G1 X111.350 Y115.239 E1.02796
G1 X110.924 Y115.438 E1.04193
G1 X110.469 Y115.560 E1.05591
G1 X110.000 Y115.601 E1.06989
G1 X109.531 Y115.560 E1.08387
G1 X109.076 Y115.438 E1.09785
G1 X108.650 Y115.239 E1.11182
G1 X108.264 Y114.969 E1.12580
G1 X107.931 Y114.636 E1.13978
G1 X107.661 Y114.250 E1.15376
G1 X107.462 Y113.824 E1.16773
G1 X107.340 Y113.369 E1.18171
G1 X107.299 Y112.900 E1.19569
G1 X107.340 Y112.431 E1.20967
G1 X107.462 Y111.976 E1.22365
G1 X107.661 Y111.550 E1.23762
G1 X107.931 Y111.164 E1.25160
G1 X108.264 Y110.831 E1.26558
G1 X108.650 Y110.561 E1.27956
G1 X109.076 Y110.362 E1.29354
G1 X109.531 Y110.240 E1.30751
G1 X110.000 Y110.199 E1.32149 F1800.000
G1 X110.469 Y110.240 E1.33547
G1 X110.924 Y110.362 E1.34945
G1 X111.350 Y110.561 E1.36343
G1 X111.736 Y110.831 E1.37740
G1 X112.069 Y111.164 E1.39138
G1 X112.339 Y111.550 E1.40536
G1 X112.538 Y111.976 E1.41934
G1 X112.660 Y112.431 E1.43331
G1 X112.701 Y112.900 E1.44729
G1 X112.660 Y113.369 E1.46127
G1 X112.538 Y113.824 E1.47525
G1 X112.339 Y114.250 E1.48923
G1 X112.103 Y114.587 E1.50142
G1 X112.195 Y115.016 F7800.000
G1 E0.50142 F1800.00000
G92 E0
G1 X111.944 Y110.000 F7800.000
G1 X111.944 Y110.000 F7800.000
G1 X108.206 Y110.000 F7800.000
G1 E1.00000 F1800.00000
G1 X107.803 Y110.282 E1.01459 F1800.000
G1 X107.614 Y110.471 E1.02253
G1 X107.614 Y109.529 E1.05050
G1 X107.803 Y109.718 E1.05843
G1 X108.157 Y109.966 E1.07125
G1 X109.008 Y110.000 F7800.000
G1 X108.470 Y110.251 E1.08886 F1800.000
G1 X108.034 Y110.557 E1.10469
G1 X107.657 Y110.934 E1.12052
G1 X107.407 Y111.290 E1.13344
G1 X107.257 Y111.243 E1.13811
G1 X107.257 Y108.757 E1.21191
G1 X107.407 Y108.710 E1.21657
G1 X107.657 Y109.066 E1.22950
G1 X108.034 Y109.443 E1.24533
G1 X108.470 Y109.749 E1.26116
G1 X108.954 Y109.975 E1.27699
G1 X107.700 Y109.736 F7800.000
G1 X107.700 Y109.736 F7800.000
G1 X107.257 Y105.443 F7800.000
G1 X107.257 Y104.357 E1.30923 F1800.000
G1 X108.343 Y104.357 E1.34146
G1 X108.390 Y104.507 E1.34613
G1 X108.034 Y104.757 E1.35905
G1 X107.657 Y105.134 E1.37488
G1 X107.407 Y105.490 E1.38780
G1 X107.314 Y105.461 E1.39069
G1 X107.672 Y105.734 F7800.000
G1 X107.931 Y105.364 E1.40408 F1800.000
G1 X108.264 Y105.031 E1.41806
G1 X108.650 Y104.761 E1.43204
G1 X109.076 Y104.562 E1.44602
G1 X109.531 Y104.440 E1.45999
G1 X110.000 Y104.399 E1.47397 F1800.000
G1 X110.469 Y104.440 E1.48795
G1 X110.924 Y104.562 E1.50193
G1 X111.350 Y104.761 E1.51591
G1 X111.736 Y105.031 E1.52988
G1 X112.069 Y105.364 E1.54386
G1 X112.339 Y105.750 E1.55784
G1 X112.538 Y106.176 E1.57182
G1 X112.660 Y106.631 E1.58579
G1 X112.701 Y107.100 E1.59977
G1 X112.660 Y107.569 E1.61375
G1 X112.538 Y108.024 E1.62773
G1 X112.339 Y108.450 E1.64171
G1 X112.069 Y108.836 E1.65568
G1 X111.736 Y109.169 E1.66966
G1 X111.350 Y109.439 E1.68364
G1 X110.924 Y109.638 E1.69762
G1 X110.469 Y109.760 E1.71160
G1 X110.000 Y109.801 E1.72557
G1 X109.531 Y109.760 E1.73955
G1 X109.076 Y109.638 E1.75353
G1 X108.650 Y109.439 E1.76751
G1 X108.264 Y109.169 E1.78149
G1 X107.931 Y108.836 E1.79546
G1 X107.661 Y108.450 E1.80944
G1 X107.462 Y108.024 E1.82342
G1 X107.340 Y107.569 E1.83740
G1 X107.299 Y107.100 E1.85137
G1 X107.340 Y106.631 E1.86535
G1 X107.462 Y106.176 E1.87933
G1 X107.644 Y105.786 E1.89211
G1 X107.483 Y105.381 F7800.000
G1 E0.89211 F1800.00000
G92 E0
G1 X107.700 Y109.736 F7800.000
G1 X107.700 Y109.736 F7800.000
G1 X111.657 Y104.357 F7800.000
G1 E1.00000 F1800.00000
G1 X112.743 Y104.357 E1.03224 F1800.000
G1 X112.743 Y105.443 E1.06447
G1 X112.593 Y105.490 E1.06914
G1 X112.343 Y105.134 E1.08206
G1 X111.966 Y104.757 E1.09789
G1 X111.610 Y104.507 E1.11081
G1 X111.639 Y104.414 E1.11370
G1 E0.11370 F1800.00000
G92 E0
G1 X112.300 Y109.736 F7800.000
G1 X112.300 Y109.736 F7800.000
G1 X112.386 Y109.529 F7800.000
G1 E1.00000 F1800.00000
G1 X112.386 Y110.471 E1.02797 F1800.000
G1 X112.197 Y110.282 E1.03590
G1 X111.794 Y110.000 E1.05050
G1 X112.197 Y109.718 E1.06509
G1 X112.343 Y109.571 E1.07125
G1 X112.743 Y108.757 F7800.000
G1 X112.743 Y111.243 E1.14505 F1800.000
G1 X112.593 Y111.290 E1.14971
G1 X112.343 Y110.934 E1.16264
G1 X111.966 Y110.557 E1.17847
G1 X111.530 Y110.251 E1.19430
G1 X110.992 Y110.000 E1.21191
G1 X111.530 Y109.749 E1.22952
G1 X111.966 Y109.443 E1.24535
G1 X112.343 Y109.066 E1.26119
G1 X112.593 Y108.710 E1.27411
G1 X112.686 Y108.739 E1.27699
G1 X112.743 Y114.557 F7800.000
G1 X112.743 Y115.643 E1.30923 F1800.000
G1 X111.657 Y115.643 E1.34146
G1 X111.610 Y115.493 E1.34613
G1 X111.966 Y115.243 E1.35905
G1 X112.343 Y114.866 E1.37488
G1 X112.593 Y114.510 E1.38780
G1 X112.686 Y114.539 E1.39069
G1 E0.39069 F1800.00000
G92 E0
G1 X112.300 Y110.264 F7800.000
G1 X112.300 Y110.264 F7800.000
G1 X108.343 Y115.643 F7800.000
G1 E1.00000 F1800.00000
G1 X107.257 Y115.643 E1.03224 F1800.000
G1 X107.257 Y114.557 E1.06447
G1 X107.407 Y114.510 E1.06914
G1 X107.657 Y114.866 E1.08206
G1 X108.034 Y115.243 E1.09789
G1 X108.390 Y115.493 E1.11081
G1 X108.361 Y115.586 E1.11370
G1 X106.900 Y116.000 F7800.000
G1 X106.900 Y104.000 E1.46999 F1800.000
G1 X113.100 Y104.000 E1.65408
G1 X113.100 Y116.000 E2.01037
G1 X106.960 Y116.000 E2.19268
G1 X107.100 Y115.654 F7800.000
G1 X108.011 Y115.456 F7800.000
G1 X107.601 Y115.298 E2.20571 F1800.000
G1 X107.444 Y114.889 E2.21874
G1 X107.286 Y114.361 F7800.000
G1 X107.188 Y113.913 E2.23234 F1800.000
G1 X107.122 Y113.411 E2.24738
G1 X107.099 Y112.898 E2.26263
G1 X107.122 Y112.389 E2.27777
G1 X107.188 Y111.887 E2.29280
G1 X107.286 Y111.439 E2.30640
G1 X109.133 Y110.151 F7800.000
G1 X109.447 Y110.036 E2.31633 F1800.000
G1 X109.548 Y109.940 E2.32047
G1 X109.133 Y109.849 F7800.000
G1 X109.447 Y109.964 E2.33040 F1800.000
G1 X109.494 Y110.000 E2.33216
G1 X110.570 Y110.000 E2.36409
G1 X110.867 Y109.849 F7800.000
G1 X110.553 Y109.964 E2.37401 F1800.000
G1 X110.506 Y110.000 E2.37578
G1 X110.553 Y110.036 E2.37755
G1 X110.867 Y110.151 E2.38747
G1 X112.714 Y111.439 F7800.000
G1 X112.812 Y111.887 E2.40107 F1800.000
G1 X112.878 Y112.389 E2.41611
G1 X112.901 Y112.898 E2.43125
G1 X112.878 Y113.411 E2.44650
G1 X112.812 Y113.913 E2.46154
G1 X112.714 Y114.361 E2.47514
G1 X112.556 Y114.889 F7800.000
G1 X112.398 Y115.298 E2.48817 F1800.000
G1 X111.989 Y115.456 E2.50120
G1 X111.461 Y115.614 F7800.000
G1 X111.013 Y115.712 E2.51480 F1800.000
G1 X110.511 Y115.778 E2.52983
G1 X110.002 Y115.801 E2.54498
G1 X109.489 Y115.778 E2.56023
G1 X108.987 Y115.712 E2.57526
G1 X108.539 Y115.614 E2.58886
G1 E1.58886 F1800.00000
G92 E0
G1 X107.700 Y110.264 F7800.000
G1 X107.730 Y110.191 F7800.000
G1 X107.730 Y109.809 F7800.000
G1 X107.728 Y109.804 F7800.000
G1 X107.700 Y109.736 F7800.000
G1 X107.286 Y108.561 F7800.000
G1 E1.00000 F1800.00000
G1 X107.188 Y108.113 E1.01360 F1800.000
G1 X107.122 Y107.611 E1.02864
G1 X107.099 Y107.102 E1.04378
G1 X107.122 Y106.589 E1.05903
G1 X107.188 Y106.087 E1.07406
G1 X107.286 Y105.639 E1.08766
G1 X107.444 Y105.111 F7800.000
G1 X107.601 Y104.702 E1.10069 F1800.000
G1 X108.011 Y104.544 E1.11373
G1 X108.539 Y104.386 F7800.000
G1 X108.987 Y104.288 E1.12733 F1800.000
G1 X109.489 Y104.222 E1.14236
G1 X109.998 Y104.199 E1.15750
G1 X110.511 Y104.222 E1.17275
G1 X111.013 Y104.288 E1.18779
G1 X111.461 Y104.386 E1.20139
G1 X111.989 Y104.544 F7800.000
G1 X112.399 Y104.702 E1.21442 F1800.000
G1 X112.556 Y105.111 E1.22745
G1 X112.714 Y105.639 F7800.000
G1 X112.812 Y106.087 E1.24105 F1800.000
G1 X112.878 Y106.589 E1.25609
G1 X112.901 Y107.098 E1.27123
G1 X112.878 Y107.611 E1.28648
G1 X112.812 Y108.113 E1.30151
G1 X112.714 Y108.561 E1.31512
G1 E0.31512 F1800.00000
G92 E0
G1 Z0.300 F7800.000
G1 X108.098 Y114.802 F7800.000
G1 E1.00000 F1800.00000
G1 X107.931 Y114.636 E1.00370 F900.000
G1 X107.661 Y114.250 E1.01111
G1 X107.467 Y113.834 E1.01834
G1 X107.340 Y113.369 E1.02592
G1 X107.299 Y112.900 E1.03334
G1 X107.340 Y112.431 E1.04075
G1 X107.462 Y111.976 E1.04816
G1 X107.661 Y111.550 E1.05557
G1 X107.931 Y111.164 E1.06297
G1 X108.264 Y110.831 E1.07038
G1 X108.650 Y110.561 E1.07779
G1 X109.076 Y110.362 E1.08520
G1 X109.531 Y110.240 E1.09261
G1 X109.989 Y110.200 E1.09984 F900.000
G1 X110.469 Y110.240 E1.10742
G1 X110.924 Y110.362 E1.11483
G1 X111.350 Y110.561 E1.12224
G1 X111.736 Y110.831 E1.12965
G1 X112.069 Y111.164 E1.13706
G1 X112.339 Y111.550 E1.14447
G1 X112.538 Y111.976 E1.15188
G1 X112.660 Y112.431 E1.15929
G1 X112.701 Y112.900 E1.16670
G1 X112.660 Y113.369 E1.17411
G1 X112.538 Y113.824 E1.18152
G1 X112.339 Y114.250 E1.18892
G1 X112.069 Y114.636 E1.19633
G1 X111.736 Y114.969 E1.20374
G1 X111.350 Y115.239 E1.21115
G1 X110.924 Y115.438 E1.21856
G1 X110.469 Y115.560 E1.22597
G1 X110.000 Y115.601 E1.23338
G1 X109.531 Y115.560 E1.24079
G1 X109.076 Y115.438 E1.24820
G1 X108.650 Y115.239 E1.25560
G1 X108.264 Y114.969 E1.26301
G1 X108.140 Y114.845 E1.26577
G1 X107.870 Y114.863 F7800.000
G1 E0.26577 F1800.00000
G92 E0
G1 X107.700 Y110.264 F7800.000
G1 X107.700 Y110.264 F7800.000
G1 X107.419 Y110.943 F7800.000
G1 E1.00000 F1800.00000
G1 X107.419 Y109.057 E1.05165 F900.000
G1 X107.929 Y109.568 E1.07143
G1 X108.547 Y110.000 E1.09207
G1 X107.929 Y110.432 E1.11271
G1 X107.461 Y110.901 E1.13084
G1 X111.453 Y110.000 F7800.000
G1 X112.071 Y109.568 E1.15148 F900.000
G1 X112.581 Y109.057 E1.17126
G1 X112.581 Y110.943 E1.22291
G1 X112.071 Y110.432 E1.24269
G1 X111.502 Y110.034 E1.26169
G1 X111.220 Y109.500 F7800.000
G1 X110.924 Y109.638 E1.26683 F900.000
G1 X110.469 Y109.760 E1.27424
G1 X110.000 Y109.801 E1.28165
G1 X109.531 Y109.760 E1.28906
G1 X109.076 Y109.638 E1.29646
G1 X108.650 Y109.439 E1.30387
G1 X108.264 Y109.169 E1.31128
G1 X107.931 Y108.836 E1.31869
G1 X107.661 Y108.450 E1.32610
G1 X107.467 Y108.034 E1.33333
G1 X107.340 Y107.569 E1.34091
G1 X107.299 Y107.100 E1.34832
G1 X107.340 Y106.631 E1.35573
G1 X107.462 Y106.176 E1.36314
G1 X107.661 Y105.750 E1.37055
G1 X107.931 Y105.364 E1.37796
G1 X108.264 Y105.031 E1.38537
G1 X108.650 Y104.761 E1.39278
G1 X109.076 Y104.562 E1.40019
G1 X109.531 Y104.440 E1.40760
G1 X109.989 Y104.400 E1.41483 F900.000
G1 X110.469 Y104.440 E1.42241
G1 X110.924 Y104.562 E1.42982
G1 X111.350 Y104.761 E1.43723
G1 X111.736 Y105.031 E1.44464
G1 X112.069 Y105.364 E1.45205
G1 X112.339 Y105.750 E1.45946
G1 X112.538 Y106.176 E1.46687
G1 X112.660 Y106.631 E1.47427
G1 X112.701 Y107.100 E1.48168
G1 X112.660 Y107.569 E1.48909
G1 X112.538 Y108.024 E1.49650
G1 X112.339 Y108.450 E1.50391
G1 X112.069 Y108.836 E1.51132
G1 X111.736 Y109.169 E1.51873
G1 X111.274 Y109.474 E1.52744
G1 X111.206 Y109.826 F7800.000
G1 X112.300 Y109.736 F7800.000
G1 X112.300 Y109.736 F7800.000
G1 X113.100 Y104.000 F7800.000
G1 X113.100 Y116.000 E1.71630 F900.000
G1 X106.900 Y116.000 E1.81387
G1 X106.900 Y104.000 E2.00273
G1 X113.040 Y104.000 E2.09936
G1 X112.900 Y104.346 F7800.000
G1 X111.538 Y104.402 F7800.000
G1 X112.084 Y104.574 E2.13119 F1200.000
G1 X112.399 Y104.702 E2.15009
G1 X112.526 Y105.016 E2.16898
G1 X112.698 Y105.562 E2.20082
G1 E1.20082 F1800.00000
G92 E0
G1 X112.300 Y109.736 F7800.000
G1 X112.300 Y109.736 F7800.000
G1 X108.462 Y104.402 F7800.000
G1 E1.00000 F1800.00000
G1 X107.916 Y104.574 E1.03184 F1200.000
G1 X107.601 Y104.702 E1.05073
G1 X107.474 Y105.016 E1.06963
G1 X107.302 Y105.562 E1.10146
G1 X107.302 Y114.438 F7800.000
G1 X107.474 Y114.984 E1.13330 F1200.000
G1 X107.601 Y115.298 E1.15220
G1 X107.916 Y115.426 E1.17109
G1 X108.462 Y115.598 E1.20293
G1 X111.538 Y115.598 F7800.000
G1 X112.084 Y115.426 E1.23477 F1200.000
G1 X112.398 Y115.298 E1.25366
G1 X112.526 Y114.984 E1.27256
G1 X112.698 Y114.438 E1.30439
G1 E0.30439 F1800.00000
G92 E0
G1 Z0.400 F7800.000
G1 X110.924 Y110.362 F7800.000
G1 E1.00000 F1800.00000
G1 X111.350 Y110.561 E1.00741 F900.000
G1 X111.736 Y110.831 E1.01482
G1 X112.069 Y111.164 E1.02223
G1 X112.339 Y111.550 E1.02964
G1 X112.538 Y111.976 E1.03704
G1 X112.660 Y112.431 E1.04445
G1 X112.701 Y112.900 E1.05186
G1 X112.660 Y113.369 E1.05927
G1 X112.538 Y113.824 E1.06668
G1 X112.339 Y114.250 E1.07409
G1 X112.069 Y114.636 E1.08150
G1 X111.736 Y114.969 E1.08891
G1 X111.350 Y115.239 E1.09632
G1 X110.924 Y115.438 E1.10373
G1 X110.469 Y115.560 E1.11113
G1 X110.000 Y115.601 E1.11854
G1 X109.531 Y115.560 E1.12595
G1 X109.076 Y115.438 E1.13336
G1 X108.650 Y115.239 E1.14077
G1 X108.264 Y114.969 E1.14818
G1 X107.931 Y114.636 E1.15559
G1 X107.661 Y114.250 E1.16300
G1 X107.462 Y113.824 E1.17041
G1 X107.340 Y113.369 E1.17782
G1 X107.299 Y112.900 E1.18522
G1 X107.340 Y112.431 E1.19263
G1 X107.462 Y111.976 E1.20004
G1 X107.661 Y111.550 E1.20745
G1 X107.931 Y111.164 E1.21486
G1 X108.264 Y110.831 E1.22227
G1 X108.650 Y110.561 E1.22968
G1 X109.076 Y110.362 E1.23709
G1 X109.531 Y110.240 E1.24450
G1 X109.984 Y110.201 E1.25166 F900.000
G1 X110.468 Y110.240 E1.25930
G1 X110.866 Y110.347 E1.26578
G1 X111.237 Y110.114 F7800.000
G1 X108.547 Y110.000 F7800.000
G1 X107.929 Y110.432 E1.28641 F900.000
G1 X107.419 Y110.943 E1.30619
G1 X107.419 Y109.057 E1.35784
G1 X107.929 Y109.568 E1.37762
G1 X108.498 Y109.966 E1.39662
G1 X111.453 Y110.000 F7800.000
G1 X112.071 Y109.568 E1.41726 F900.000
G1 X112.581 Y109.057 E1.43704
G1 X112.581 Y110.943 E1.48869
G1 X112.071 Y110.432 E1.50847
G1 X111.502 Y110.034 E1.52746
G1 X111.220 Y109.500 F7800.000
G1 X110.924 Y109.638 E1.53260 F900.000
