; generated by Slic3r 1.2.9 on 2020-02-13 at 21:31:07

; external perimeters extrusion width = 0.40mm
; perimeters extrusion width = 0.68mm
; infill extrusion width = 1.28mm
; solid infill extrusion width = 0.68mm
; top infill extrusion width = 0.68mm
; support material extrusion width = 0.40mm

M190 S45 ; set bed temperature
M104 S255 ; set temperature
G28 ; home all axes
G1 Z5 F5000 ; lift nozzle

M109 S255 ; wait for temperature to be reached
G21 ; set units to millimeters
G90 ; use absolute coordinates
M82 ; use absolute distances for extrusion
G92 E0
G1 E-1.00000 F1800.00000
G92 E0
G1 Z0.200 F7800.000
G1 X103.312 Y100.899 F7800.000
G1 E1.00000 F1800.00000
G1 X104.757 Y99.536 E1.06781 F1800.000
G1 X105.917 Y98.716 E1.11636
G1 X108.054 Y97.691 E1.19728
G1 X110.410 Y97.430 E1.27820
G1 X112.720 Y97.962 E1.35913
G1 X114.083 Y98.716 E1.41231 F1800.000
G1 X115.243 Y99.536 E1.46085
G1 X116.922 Y101.210 E1.54177
G1 X117.953 Y103.344 E1.62270
G1 X118.232 Y105.310 E1.69051
G1 X118.232 Y115.910 E2.05245
G1 X117.835 Y118.247 E2.13337
G1 X116.688 Y120.321 E2.21430
G1 X115.243 Y121.684 E2.28212
G1 X114.083 Y122.504 E2.33065
G1 X111.946 Y123.529 E2.41158
G1 X109.590 Y123.790 E2.49250
G1 X107.280 Y123.258 E2.57343
G1 X105.917 Y122.504 E2.62661
G1 X104.757 Y121.684 E2.67514
G1 X103.078 Y120.010 E2.75607
G1 X102.047 Y117.876 E2.83699
G1 X101.768 Y115.910 E2.90481
G1 X101.768 Y105.310 E3.26675
G1 X102.165 Y102.973 E3.34767
G1 X103.283 Y100.952 E3.42655
G1 X103.635 Y101.084 F7800.000
G1 X103.666 Y101.030 E3.42867 F1800.000
G1 X104.963 Y99.828 E3.48904
G1 X106.124 Y99.007 E3.53758
G1 X108.210 Y98.018 E3.61642
G1 X110.508 Y97.794 E3.69526
G1 X112.746 Y98.362 E3.77410
G1 X113.876 Y99.007 E3.81853 F1800.000
G1 X115.037 Y99.828 E3.86707
G1 X116.665 Y101.465 E3.94591
G1 X117.642 Y103.557 E4.02475
G1 X117.875 Y105.310 E4.08512
G1 X117.875 Y115.910 E4.44705
G1 X117.478 Y118.185 E4.52589
G1 X116.334 Y120.190 E4.60473
G1 X115.037 Y121.392 E4.66510
G1 X113.876 Y122.213 E4.71364
G1 X111.790 Y123.202 E4.79248
G1 X109.492 Y123.426 E4.87132
G1 X107.254 Y122.858 E4.95016
G1 X106.124 Y122.213 E4.99459
G1 X104.963 Y121.392 E5.04313
G1 X103.335 Y119.755 E5.12197
G1 X102.358 Y117.663 E5.20081
G1 X102.125 Y115.910 E5.26118
G1 X102.125 Y105.310 E5.62311
G1 X102.522 Y103.035 E5.70195
G1 X103.606 Y101.136 E5.77662
G1 X103.956 Y101.273 F7800.000
G1 X104.020 Y101.164 E5.78093 F1800.000
G1 X105.169 Y100.120 E5.83395
G1 X106.330 Y99.299 E5.88249
G1 X108.364 Y98.346 E5.95919
G1 X110.603 Y98.161 E6.03589
G1 X113.670 Y99.299 E6.14760
G1 X114.831 Y100.119 E6.19614 F1800.000
G1 X116.407 Y101.720 E6.27284
G1 X117.328 Y103.769 E6.34954
G1 X117.518 Y105.310 E6.40256
G1 X117.518 Y115.910 E6.76450
G1 X117.121 Y118.121 E6.84120
G1 X115.980 Y120.056 E6.91790
G1 X114.831 Y121.101 E6.97092
G1 X113.670 Y121.921 E7.01946
G1 X111.636 Y122.874 E7.09616
G1 X109.397 Y123.059 E7.17285
G1 X106.330 Y121.921 E7.28457
G1 X105.169 Y121.101 E7.33311
G1 X103.593 Y119.500 E7.40981
G1 X102.672 Y117.451 E7.48651
G1 X102.482 Y115.910 E7.53953
G1 X102.482 Y105.310 E7.90147
G1 X102.879 Y103.099 E7.97817
G1 X103.926 Y101.325 E8.04851
G1 E7.04851 F1800.00000
G92 E0
G1 X110.151 Y116.379 F7800.000
G1 E1.00000 F1800.00000
G1 X110.000 Y116.486 E1.00632 F1800.000
G1 X109.842 Y116.374 E1.01292
G1 X109.894 Y116.222 E1.01840
G1 X110.108 Y116.232 E1.02570
G1 X110.134 Y116.321 E1.02888 F1800.000
G1 X109.966 Y116.376 F7800.000
G1 X110.313 Y116.222 F7800.000
G1 X110.583 Y116.076 E1.03934 F1800.000
G1 X110.943 Y115.797 E1.05488
G1 X111.043 Y115.433 E1.06779
G1 X111.074 Y115.207 E1.07556
G1 X110.961 Y114.266 F7800.000
G1 X110.661 Y114.028 E1.08864 F1800.000
G1 X110.463 Y113.922 E1.09629
G1 X110.189 Y113.847 E1.10601
G1 X110.185 Y113.687 E1.11145
G1 X110.476 Y113.593 E1.12189
G1 X110.745 Y113.432 E1.13260
G1 X110.961 Y113.226 E1.14277
G1 X110.961 Y114.206 E1.17624
G1 X110.745 Y113.950 F7800.000
G1 X109.815 Y113.833 F7800.000
G1 X109.528 Y113.926 E1.18653 F1800.000
G1 X109.338 Y114.028 E1.19388
G1 X109.039 Y114.266 E1.20694
G1 X109.039 Y113.254 E1.24153
G1 X109.338 Y113.492 E1.25459
G1 X109.532 Y113.596 E1.26210
G1 X109.811 Y113.673 E1.27198
G1 X109.813 Y113.773 E1.27537
G1 X109.527 Y113.742 F7800.000
G1 X108.924 Y115.197 F7800.000
G1 X108.979 Y115.536 E1.28708 F1800.000
G1 X109.058 Y115.797 E1.29640
G1 X109.410 Y116.071 E1.31163
G1 X109.682 Y116.226 E1.32232
G1 E0.32232 F1800.00000
G92 E0
G1 X109.396 Y111.053 F7800.000
G1 E1.00000 F1800.00000
G1 X109.396 Y110.167 E1.03026 F1800.000
G1 X109.665 Y110.254 E1.03991
G1 X110.057 Y110.289 E1.05336
G1 X110.347 Y110.250 E1.06333
G1 X110.604 Y110.167 E1.07255
G1 X110.604 Y111.035 E1.10218
G1 X110.209 Y110.945 E1.11599
G1 X109.930 Y110.932 E1.12554
G1 X109.653 Y110.970 E1.13508
G1 X109.453 Y111.035 E1.14225
G1 X109.039 Y111.754 F7800.000
G1 X109.039 Y109.494 E1.21942 F1800.000
G1 X109.338 Y109.732 E1.23248
G1 X109.528 Y109.834 E1.23984
G1 X109.737 Y109.902 E1.24734
G1 X110.049 Y109.930 E1.25805
G1 X110.267 Y109.901 E1.26555
G1 X110.472 Y109.834 E1.27290
G1 X110.666 Y109.730 E1.28041
G1 X110.961 Y109.472 E1.29379
G1 X110.961 Y111.726 E1.37076
G1 X110.658 Y111.485 E1.38398
G1 X110.375 Y111.349 E1.39469
G1 X110.161 Y111.300 E1.40219
G1 X109.946 Y111.290 E1.40954
G1 X109.733 Y111.319 E1.41689
G1 X109.524 Y111.387 E1.42440
G1 X109.255 Y111.548 E1.43510
G1 X109.083 Y111.712 E1.44322
G1 X109.146 Y111.368 F7800.000
G1 E0.44322 F1800.00000
G92 E0
G1 X110.961 Y107.966 F7800.000
G1 E1.00000 F1800.00000
G1 X110.662 Y107.728 E1.01306 F1800.000
G1 X110.472 Y107.626 E1.02042
G1 X110.201 Y107.538 E1.03014
G1 X110.201 Y107.382 E1.03545
G1 X110.472 Y107.294 E1.04518
G1 X110.666 Y107.190 E1.05268
G1 X110.961 Y106.932 E1.06606
G1 X110.961 Y107.906 E1.09933
G1 X110.745 Y107.650 F7800.000
G1 X109.815 Y107.533 F7800.000
G1 X109.528 Y107.626 E1.10962 F1800.000
G1 X109.334 Y107.730 E1.11713
G1 X109.039 Y107.988 E1.13051
G1 X109.039 Y106.954 E1.16582
G1 X109.338 Y107.192 E1.17889
G1 X109.532 Y107.296 E1.18639
G1 X109.811 Y107.373 E1.19628
G1 X109.813 Y107.473 E1.19967
G1 X109.527 Y107.442 F7800.000
G1 X108.926 Y106.013 F7800.000
G1 X108.957 Y105.787 E1.20744 F1800.000
G1 X109.057 Y105.423 E1.22035
G1 X109.321 Y105.209 E1.23195
G1 X109.682 Y104.982 E1.24650
G1 X109.929 Y104.990 F7800.000
G1 X109.892 Y104.988 E1.24776 F1800.000
G1 X109.849 Y104.841 E1.25299
G1 X110.000 Y104.734 E1.25931
G1 X110.158 Y104.846 E1.26591
G1 X110.106 Y104.998 E1.27138 F1800.000
G1 X109.989 Y104.992 E1.27538
G1 X109.912 Y104.957 F7800.000
G1 X110.322 Y104.984 F7800.000
G1 X110.672 Y105.203 E1.28949 F1800.000
G1 X110.940 Y105.424 E1.30134
G1 X111.002 Y105.608 E1.30796
G1 X111.074 Y106.013 E1.32200
G1 E0.32200 F1800.00000
G92 E0
G1 X110.425 Y110.599 F7800.000
G1 E1.00000 F1800.00000
G1 X109.575 Y110.612 E1.06155 F1800.000
G1 E0.06155 F1800.00000
G92 E0
G1 Z0.200 F7800.000
G1 Z0.300 F7800.000
G1 X110.142 Y116.234 F7800.000
G1 E1.00000 F1800.00000
G1 X110.205 Y116.447 E1.00402 F900.000
G1 X110.000 Y116.592 E1.00857
G1 X109.787 Y116.441 E1.01328
G1 X109.863 Y116.221 E1.01750
G1 X110.083 Y116.231 E1.02148
G1 X110.067 Y116.442 F7800.000
G1 X110.364 Y116.278 F7800.000
G1 X110.789 Y115.985 E1.03774 F1800.000
G1 X111.035 Y115.768 E1.04808
G1 X111.120 Y115.432 E1.05898
G1 X111.154 Y115.075 E1.07026
G1 X111.043 Y114.819 E1.07906
G1 X111.111 Y114.484 F7800.000
G1 X110.830 Y114.162 E1.08678 F900.000
G1 X110.658 Y114.025 E1.09076
G1 X110.049 Y113.732 E1.10300
G1 X110.476 Y113.593 E1.11113
G1 X110.745 Y113.432 E1.11681
G1 X111.111 Y113.083 E1.12595
G1 X111.111 Y114.424 E1.15022
G1 X110.926 Y114.128 F7800.000
G1 E0.15022 F1800.00000
G92 E0
G1 X108.985 Y114.695 F7800.000
G1 E1.00000 F1800.00000
G1 X108.849 Y114.932 E1.00859 F1800.000
G1 X108.845 Y115.028 E1.01162
G1 X108.868 Y115.359 E1.02207
G1 X108.963 Y115.768 E1.03530
G1 X109.166 Y115.949 E1.04387
G1 X109.630 Y116.282 E1.06186
G1 E0.06186 F1800.00000
G92 E0
G1 X109.691 Y113.873 F7800.000
G1 E1.00000 F1800.00000
G1 X109.528 Y113.926 E1.00309 F900.000
G1 X109.334 Y114.030 E1.00707
G1 X108.889 Y114.419 E1.01777
G1 X108.889 Y113.036 E1.04279
G1 X109.170 Y113.358 E1.05051
G1 X109.338 Y113.492 E1.05441
G1 X109.528 Y113.594 E1.05831
G1 X109.691 Y113.647 E1.06140
G1 X109.691 Y113.813 E1.06440
G1 X109.528 Y113.820 F7800.000
G1 E0.06440 F1800.00000
G92 E0
G1 X110.592 Y110.867 F7800.000
G1 E1.00000 F1800.00000
G1 X110.155 Y110.767 E1.01412 F900.000
G1 X110.170 Y110.437 E1.02451
G1 X110.592 Y110.380 E1.03793
G1 X110.592 Y110.807 E1.05136
G1 X109.828 Y110.783 F7800.000
G1 X109.408 Y110.840 E1.06470 F900.000
G1 X109.408 Y110.393 E1.07877
G1 X109.820 Y110.430 E1.09179
G1 X109.826 Y110.723 E1.10102
G1 X108.889 Y111.897 F7800.000
G1 X108.889 Y109.276 E1.14845 F900.000
G1 X109.170 Y109.598 E1.15617
G1 X109.338 Y109.732 E1.16007
G1 X109.528 Y109.834 E1.16397
G1 X109.737 Y109.902 E1.16794
G1 X110.049 Y109.930 E1.17362
G1 X110.267 Y109.901 E1.17760
G1 X110.472 Y109.834 E1.18149
G1 X110.666 Y109.730 E1.18547
G1 X111.111 Y109.341 E1.19617
G1 X111.111 Y111.944 E1.24327
G1 X110.830 Y111.622 E1.25099
G1 X110.658 Y111.485 E1.25497
G1 X110.375 Y111.349 E1.26065
G1 X110.161 Y111.300 E1.26463
G1 X109.946 Y111.290 E1.26852
G1 X109.732 Y111.319 E1.27243
G1 X109.513 Y111.392 E1.27661
G1 X109.254 Y111.548 E1.28208
G1 X108.933 Y111.856 E1.29013
G1 X108.996 Y111.512 F7800.000
G1 X111.015 Y109.065 F7800.000
G1 X111.151 Y108.828 E1.29872 F1800.000
G1 X111.147 Y108.537 E1.30791
G1 X111.089 Y108.098 E1.32184
G1 X110.309 Y107.573 F7800.000
G1 X110.309 Y107.347 E1.32593 F900.000
G1 X110.472 Y107.294 E1.32903
G1 X110.666 Y107.190 E1.33301
G1 X111.111 Y106.801 E1.34370
G1 X111.111 Y107.878 E1.36320
G1 X110.902 Y107.951 E1.36720
G1 X110.833 Y107.865 E1.36920
G1 X110.662 Y107.728 E1.37318
G1 X110.472 Y107.626 E1.37707
G1 X110.367 Y107.592 E1.37908
G1 X110.442 Y107.390 F7800.000
G1 X111.015 Y106.525 F7800.000
G1 X111.151 Y106.288 E1.38767 F1800.000
G1 X111.155 Y106.204 E1.39033
G1 X111.132 Y105.861 E1.40115
G1 X111.037 Y105.452 E1.41439
G1 X110.699 Y105.169 E1.42825
G1 X110.366 Y104.961 E1.44062
G1 X109.541 Y104.953 F7800.000
G1 X110.000 Y104.628 E1.45080 F900.000
G1 X110.219 Y104.783 E1.45565
G1 X110.136 Y105.006 E1.45996
G1 X109.601 Y104.958 E1.46970
G1 X109.912 Y104.804 F7800.000
G1 X109.541 Y105.225 F7800.000
G1 X109.052 Y105.366 E1.48570 F1800.000
G1 X108.965 Y105.452 E1.48957
G1 X108.880 Y105.788 E1.50047
G1 X108.846 Y106.145 E1.51175
G1 X108.957 Y106.401 E1.52055
G1 X108.889 Y106.736 F7800.000
G1 X109.170 Y107.058 E1.52827 F900.000
G1 X109.338 Y107.192 E1.53217
G1 X109.528 Y107.294 E1.53606
G1 X109.691 Y107.347 E1.53916
G1 X109.691 Y107.573 E1.54325
G1 X109.528 Y107.626 E1.54634
G1 X109.334 Y107.730 E1.55032
G1 X108.889 Y108.119 E1.56102
G1 X108.889 Y106.796 E1.58495
G1 X109.074 Y107.092 F7800.000
G1 E0.58495 F1800.00000
G92 E0
G1 Z0.400 F7800.000
G1 X110.237 Y116.205 F7800.000
G1 E1.00000 F1800.00000
G1 X110.326 Y116.432 E1.00442 F900.000
G1 X110.000 Y116.663 E1.01165
G1 X109.681 Y116.437 E1.01873
G1 X109.756 Y116.216 E1.02294
G1 X110.054 Y116.230 E1.02834
G1 X110.177 Y116.213 E1.03059
G1 X110.181 Y116.443 F7800.000
G1 X110.467 Y116.243 F7800.000
G1 X110.809 Y116.006 E1.04371 F1800.000
G1 X111.097 Y115.748 E1.05589
G1 X111.161 Y115.490 E1.06426
G1 X111.198 Y115.211 E1.07311
G1 X111.043 Y114.819 E1.08638
G1 X111.211 Y114.598 F7800.000
G1 X110.830 Y114.162 E1.09686 F900.000
G1 X110.658 Y114.025 E1.10084
G1 X110.049 Y113.732 E1.11307
G1 X110.476 Y113.593 E1.12121
G1 X110.745 Y113.432 E1.12688
G1 X110.904 Y113.280 E1.13086
G1 X110.996 Y113.154 E1.13367
G1 X111.211 Y113.224 E1.13777
G1 X111.211 Y114.538 E1.16154
G1 X111.026 Y114.243 F7800.000
G1 X109.706 Y113.867 F7800.000
G1 X109.434 Y113.970 E1.16681 F900.000
G1 X109.251 Y114.092 E1.17080
G1 X108.789 Y114.540 E1.18244
G1 X108.789 Y112.922 E1.21173
G1 X109.170 Y113.358 E1.22221
G1 X109.338 Y113.492 E1.22610
G1 X109.532 Y113.596 E1.23008
G1 X109.696 Y113.641 E1.23315
G1 X109.703 Y113.807 E1.23614
G1 X109.425 Y113.790 F7800.000
G1 X108.779 Y114.829 F7800.000
G1 X108.820 Y115.377 E1.25344 F1800.000
G1 X108.903 Y115.748 E1.26539
G1 X109.149 Y115.973 E1.27589
G1 X109.534 Y116.248 E1.29079
G1 E0.29079 F1800.00000
G92 E0
G1 X109.308 Y110.912 F7800.000
G1 E1.00000 F1800.00000
G1 X109.308 Y110.308 E1.01903 F900.000
G1 X109.632 Y110.413 E1.02977
G1 X109.820 Y110.430 E1.03569
G1 X109.828 Y110.783 E1.04681
G1 X109.617 Y110.812 E1.05350
G1 X109.365 Y110.894 E1.06184
G1 X110.155 Y110.767 F7800.000
G1 X110.170 Y110.437 E1.07223 F900.000
G1 X110.383 Y110.408 E1.07901
G1 X110.692 Y110.308 E1.08924
G1 X110.692 Y110.889 E1.10755
G1 X110.213 Y110.780 E1.12301
G1 X111.211 Y112.058 F7800.000
G1 X110.830 Y111.622 E1.13349 F900.000
G1 X110.658 Y111.485 E1.13747
G1 X110.375 Y111.349 E1.14314
G1 X110.161 Y111.300 E1.14712
G1 X109.946 Y111.290 E1.15102
G1 X109.733 Y111.319 E1.15491
G1 X109.528 Y111.386 E1.15881
G1 X109.338 Y111.488 E1.16271
G1 X109.170 Y111.622 E1.16660
G1 X108.789 Y112.058 E1.17708
G1 X108.789 Y109.162 E1.22949
G1 X109.170 Y109.598 E1.23997
G1 X109.338 Y109.732 E1.24386
G1 X109.528 Y109.834 E1.24776
G1 X109.737 Y109.902 E1.25174
G1 X110.049 Y109.930 E1.25741
G1 X110.267 Y109.901 E1.26139
G1 X110.472 Y109.834 E1.26529
G1 X110.666 Y109.730 E1.26926
G1 X110.902 Y109.524 E1.27494
G1 X110.996 Y109.394 E1.27784
G1 X111.211 Y109.464 E1.28193
G1 X111.211 Y111.998 E1.32779
G1 X111.026 Y111.703 F7800.000
G1 E0.32779 F1800.00000
G92 E0
G1 X108.998 Y108.076 F7800.000
G1 E1.00000 F1800.00000
G1 X108.789 Y108.003 E1.00401 F900.000
G1 X108.789 Y106.622 E1.02900
G1 X109.170 Y107.058 E1.03948
G1 X109.339 Y107.193 E1.04339
G1 X109.548 Y107.302 E1.04765
G1 X109.688 Y107.340 E1.05028
G1 X109.694 Y107.572 E1.05448
G1 X109.528 Y107.626 E1.05763
G1 X109.338 Y107.728 E1.06154
G1 X109.155 Y107.877 E1.06580
G1 X109.036 Y108.028 E1.06929
G1 X108.873 Y107.893 F7800.000
G1 X108.956 Y106.400 F7800.000
G1 X108.802 Y106.009 E1.08252 F1800.000
G1 X108.839 Y105.730 E1.09137
G1 X108.902 Y105.473 E1.09970
G1 X109.275 Y105.156 E1.11511
G1 X109.555 Y104.979 E1.12555
G1 X109.783 Y105.012 F7800.000
G1 X109.694 Y104.784 E1.12998 F900.000
G1 X110.010 Y104.564 E1.13695
G1 X110.333 Y104.793 E1.14411
G1 X110.251 Y105.017 E1.14843
G1 X109.951 Y104.990 E1.15388
G1 X109.842 Y105.004 E1.15586
G1 X109.839 Y104.774 F7800.000
G1 X110.481 Y104.969 F7800.000
G1 X110.861 Y105.254 E1.17080 F1800.000
G1 X111.097 Y105.472 E1.18092
G1 X111.180 Y105.843 E1.19287
G1 X111.204 Y106.162 E1.20296
G1 X111.197 Y106.388 E1.21006
G1 X111.157 Y106.696 E1.21986
G1 X111.211 Y106.924 F7800.000
G1 X111.211 Y108.298 E1.24472 F900.000
G1 X110.830 Y107.862 E1.25520
G1 X110.662 Y107.728 E1.25910
G1 X110.472 Y107.626 E1.26299
G1 X110.309 Y107.573 E1.26609
G1 X110.309 Y107.347 E1.27018
G1 X110.472 Y107.294 E1.27327
G1 X110.666 Y107.190 E1.27725
G1 X110.902 Y106.984 E1.28292
G1 X110.996 Y106.854 E1.28582
G1 X111.154 Y106.906 E1.28882
G1 X110.976 Y107.248 F7800.000
M106 S89.25
G1 E0.28882 F1800.00000
G92 E0
G1 Z0.500 F7800.000
G1 X110.450 Y116.415 F7800.000
G1 E1.00000 F1800.00000
G1 X110.000 Y116.733 E1.00997 F900.000
G1 X109.542 Y116.409 E1.02013
G1 X109.646 Y116.176 E1.02475
G1 X109.839 Y116.220 E1.02833
G1 X110.054 Y116.230 E1.03223
G1 X110.360 Y116.188 E1.03783
G1 X110.428 Y116.359 E1.04116
G1 X110.050 Y116.420 F7800.000
G1 X109.416 Y116.200 F7800.000
G1 X109.079 Y115.953 E1.05430 F1800.000
G1 X108.843 Y115.727 E1.06460
G1 X108.756 Y115.255 E1.07972
G1 X108.760 Y114.679 E1.09786
G1 X108.689 Y114.454 F7800.000
G1 X108.689 Y113.073 E1.12284 F900.000
G1 X108.918 Y113.010 E1.12713
G1 X109.029 Y113.196 E1.13104
G1 X109.170 Y113.358 E1.13494
G1 X109.338 Y113.492 E1.13883
G1 X109.532 Y113.596 E1.14281
G1 X109.690 Y113.640 E1.14578
G1 X109.696 Y113.871 E1.14997
G1 X109.528 Y113.926 E1.15316
G1 X109.338 Y114.028 E1.15706
G1 X109.170 Y114.162 E1.16095
G1 X109.026 Y114.327 E1.16491
G1 X108.923 Y114.514 E1.16878
G1 X108.747 Y114.469 E1.17206
G1 X108.918 Y114.125 F7800.000
G1 X110.309 Y113.647 F7800.000
G1 X110.476 Y113.593 E1.17523 F900.000
G1 X110.745 Y113.432 E1.18091
G1 X110.904 Y113.280 E1.18489
G1 X111.096 Y113.017 E1.19078
